packages/design-system/src/icons/assets/ic_float_edit_24.svg

<svg width="25" height="24" viewBox="0 0 25 24" fill="none" xmlns="http://www.w3.org/2000/svg">
<g id="ic_float_edit_24">
<path id="Vector" d="M6.5 15.6403V17.6667C6.5 17.8534 6.64665 18 6.83329 18H8.85967C8.94633 18 9.03298 17.9667 9.09297 17.9L16.372 10.6277L13.8723 8.12804L6.59999 15.4004C6.53333 15.467 6.5 15.547 6.5 15.6403ZM18.305 8.69463C18.565 8.43466 18.565 8.01472 18.305 7.75476L16.7452 6.19497C16.4853 5.93501 16.0653 5.93501 15.8054 6.19497L14.5855 7.4148L17.0852 9.91446L18.305 8.69463Z" fill="#121212"/>
</g>
</svg>

<svg xmlns="http://www.w3.org/2000/svg" width="25" height="24" fill="none"><path fill="#121212" d="M6.5 15.64v2.027a.33.33 0 0 0 .333.333H8.86a.3.3 0 0 0 .233-.1l7.279-7.272-2.5-2.5L6.6 15.4a.33.33 0 0 0-.1.24m11.805-6.945c.26-.26.26-.68 0-.94l-1.56-1.56a.664.664 0 0 0-.94 0l-1.22 1.22 2.5 2.5z"/></svg>
